actions/16/package-purge.svg

<svg xmlns="http://www.w3.org/2000/svg" viewBox="0 0 16 16">
  <defs id="defs3051">
    <style type="text/css" id="current-color-scheme">
      .ColorScheme-Text {
        color:#808080;
      }
      .ColorScheme-NegativeText {
        color:#da4453;
      }
      </style>
  </defs>
  <g transform="translate(-421.71-531.79)">
 <path style="fill:currentColor;fill-opacity:1;stroke:none" 
     d="m426.71 533.79c-.552 0-1 .448-1 1v2h-2v9h6v-1h-5v-7h10v3h1v-4h-2v-2c0-.552-.448-1-1-1zm0 1h6v2h-6z"
     class="ColorScheme-Text"
     />
  <path d="m431.71 541.79l-2 2 2 2h4v-4zm.6 1h2.4v2h-2.4l-1-1z"   style="fill:currentColor;fill-opacity:1;stroke:none" 
     class="ColorScheme-NegativeText"
   />
</g>
</svg>

<svg xmlns="http://www.w3.org/2000/svg" version="1.1" viewBox="0 0 16 16">
 <defs>
  <style id="current-color-scheme" type="text/css">
   .ColorScheme-Text { color:#808080; } .ColorScheme-NegativeText { color:#da4453; }
  </style>
 </defs>
 <g transform="translate(-421.71,-531.79)">
  <path class="ColorScheme-Text" d="M 426.71,533.79 C 426.16,533.79 425.71,534.24 425.71,534.79 V 536.79 H 423.71 V 545.79 H 429.71 V 544.79 H 424.71 V 537.79 H 434.71 V 540.79 H 435.71 V 536.79 H 433.71 V 534.79 C 433.71,534.24 433.26,533.79 432.71,533.79 Z M 426.71,534.79 H 432.71 V 536.79 H 426.71 Z" style="color:#808080;fill:currentColor"/>
  <path class="ColorScheme-NegativeText" d="M 431.71,541.79 429.71,543.79 431.71,545.79 H 435.71 V 541.79 Z M 432.31,542.79 H 434.71 V 544.79 H 432.31 L 431.31,543.79 Z" style="color:#da4453;fill:currentColor"/>
 </g>
</svg>
